!!!OTL: ELBERFELD DU SCHOENES STAEDTCHEN
!!!ARE: Europa, Mitteleuropa, Deutschland, Hessen, Wetzlar; Unter - Taunus
!!!SCT: E1601
!!!YEM: Copyright 1995, estate of Helmut Schaffrath.
**kern
*ICvox
*Ivox
*M4/4
*k[]
*C:
{4G
4G
=1
4c
4G
4A
4B
=2
8c
8G
4G}
{4.G
8F
=3
4.F
8F
8E
8G
8c
8e
=4
4d
4r}
{4G
4G
=5
4c
4G
4A
4B
=6
8c
8G
4G}
{4.G
8F
=7
4.F
8F
8E
8G
8c
8e
=8
4d
4r}
{4d
8d
8f
=9
4e
4e
4d
4d
=10
8e
8d
8c
8B}
{4.A
8B
=11
4.c
8G
8G
8B
8d
8f
=12
4e
4r}
==
!!!AGN: Staende -, Handwerker -, Gesellen - Lied; Abschied, Wanderschaft
!!!ONB: ESAC (Essen Associative Code) Database: ERK3
!!!AMT: simple quadruple
!!!AIN: vox
!!!EED: Helmut Schaffrath
!!!EEV: 1.0
*-
